_src/static/img/icon/buy-delivery.svg

<svg width="53" height="53" viewBox="0 0 53 53" fill="none" xmlns="http://www.w3.org/2000/svg">
<path fill-rule="evenodd" clip-rule="evenodd" d="M16.3908 43.7695C17.3227 43.7695 18.0802 44.527 18.0802 45.4589C18.0802 46.3908 17.3227 47.1461 16.3908 47.1461C15.4589 47.1461 14.7036 46.3908 14.7036 45.4589C14.7036 44.527 15.4589 43.7695 16.3908 43.7695Z" stroke="#00ED2F" stroke-width="1.5" stroke-linecap="round" stroke-linejoin="round"/>
<path fill-rule="evenodd" clip-rule="evenodd" d="M41.2397 43.7695C42.1716 43.7695 42.929 44.527 42.929 45.4589C42.929 46.3908 42.1716 47.1461 41.2397 47.1461C40.3078 47.1461 39.5503 46.3908 39.5503 45.4589C39.5503 44.527 40.3078 43.7695 41.2397 43.7695Z" stroke="#00ED2F" stroke-width="1.5" stroke-linecap="round" stroke-linejoin="round"/>
<path d="M6.07275 7.17676L10.6661 7.97176L12.7927 33.308C12.965 35.3728 14.6897 36.9583 16.7611 36.9583H40.8584C42.8371 36.9583 44.5154 35.5053 44.8003 33.5443L46.896 19.062C47.1544 17.2755 45.7698 15.6766 43.9655 15.6766H11.4037" stroke="#00ED2F" stroke-width="1.5" stroke-linecap="round" stroke-linejoin="round"/>
<path d="M31.1938 23.8385H37.3176" stroke="#00ED2F" stroke-width="1.5" stroke-linecap="round" stroke-linejoin="round"/>
</svg>

<svg width="53" height="53" fill="none" xmlns="http://www.w3.org/2000/svg"><path clip-rule="evenodd" d="M16.39 43.77a1.689 1.689 0 110 3.375 1.689 1.689 0 010-3.376zm24.85 0a1.689 1.689 0 110 3.375 1.689 1.689 0 010-3.376z" stroke="#00ED2F" stroke-width="1.5" stroke-linecap="round" stroke-linejoin="round"/><path d="M6.073 7.177l4.593.795 2.127 25.336a3.98 3.98 0 003.968 3.65h24.097a3.984 3.984 0 003.942-3.414l2.096-14.482a2.96 2.96 0 00-2.93-3.385H11.404m19.79 8.161h6.124" stroke="#00ED2F" stroke-width="1.5" stroke-linecap="round" stroke-linejoin="round"/></svg>
